boxicons/svg/solid/bxs-arrow-from-bottom.svg

<svg xmlns="http://www.w3.org/2000/svg" width="24" height="24" viewBox="0 0 24 24"><path d="M6 18h12v2H6zm6-14-6 6h5v6h2v-6h5z"/></svg>

<svg xmlns="http://www.w3.org/2000/svg" width="24" height="24" viewBox="0 0 24 24"><path d="M6 18H18V20H6zM12 4L6 10 11 10 11 16 13 16 13 10 18 10z"/></svg>
